src/themes/icmaa-imp/assets/logo.svg

<svg width="174" height="43" xmlns="http://www.w3.org/2000/svg">
  <g fill="none" fill-rule="evenodd">
    <path d="M174 0v43H42.521L0 0z" fill="#611122"/>
    <path d="M131.729 21.597l-4.251-4.164v-3.022c0-.343-.22-.514-.657-.514-.451 0-.68.171-.68.514v14.587c0 .344.229.515.68.515.437 0 .657-.171.657-.515v-7.675l4.251 4.242v3.575c0 .995-.498 1.796-1.487 2.398-.994.602-2.113.9-3.363.9-3.603 0-5.41-1.258-5.41-3.783V15.124c0-2.727 1.807-4.088 5.41-4.088 3.23 0 4.85 1.24 4.85 3.723v6.838M114.22 32.282l4.61-.002V15.875l-4.61-4.621v21.028M154.954 20.85l-2.652-9.586h-5.253v21.021l3.851 3.88V21.084l3.153 11.201h4.753V11.264h-3.852v9.586M66.527 22.178L64.409 11.27h-5.941v21.025h3.613V20.492l2.759 11.803h3.181l2.411-11.803v11.803l4.114 4.165V11.27h-6.188l-1.831 10.908M83.194 20.41c0 .741-.517 1.113-1.545 1.113v-7.266c1.028 0 1.545.372 1.545 1.115v5.038zm3.097-8.425c-.936-.487-2.361-.731-4.289-.731h-4.85v21.022l4.497 4.507V24.527c2.503.041 4.133-.226 4.901-.8.76-.568 1.144-1.542 1.144-2.923v-5.829c0-1.504-.467-2.501-1.403-2.99zM107.105 18.451c0 .737-.612 1.106-1.554 1.106v-5.618c.942 0 1.554.363 1.554 1.088v3.424zm1.624 2.263c1.885-.57 2.831-1.66 2.831-3.275v-2.494c0-1.277-.478-2.21-1.432-2.799-.95-.591-2.073-.884-3.358-.884h-5.782v21.039h4.563V22.076c.953 0 1.57.353 1.57 1.059 0 .04.005 7.588.005 9.147l4.444 4.432.002-12.557c0-1.85-.947-2.998-2.843-3.443zM89.801 32.287h9.035v-2.702h-4.423v-7.391h3.937V19.65h-3.937v-5.675h4.519V11.27h-9.131v21.017M51.426 32.298l4.582-.003V11.259l-4.582-4.623v25.662M140.153 28.958c0 .422-.25.632-.749.632-.518 0-.778-.21-.778-.632v-14.34c0-.422.26-.633.778-.633.499 0 .749.211.749.633v14.34zm-.727-17.865c-3.539 0-5.308 1.365-5.308 4.097v13.548c0 2.525 1.761 3.787 5.277 3.787 1.569 0 2.836-.328 3.805-.989.973-.663 1.46-1.603 1.46-2.828V15.159c0-2.711-1.744-4.066-5.234-4.066z" fill="#FFFFFE"/>
  </g>
</svg>

<?xml version="1.0" encoding="UTF-8"?>
<svg width="174px" height="43px" viewBox="0 0 174 43" version="1.1" xmlns="http://www.w3.org/2000/svg" xmlns:xlink="http://www.w3.org/1999/xlink">
    <g id="Components" stroke="none" stroke-width="1" fill="none" fill-rule="evenodd">
        <g id="header_mobile" transform="translate(-236.000000, -748.000000)">
            <g id="logo" transform="translate(236.000000, 748.000000)">
                <g id="impericon_logo_rgb">
                    <g id="Group-3" fill="#611122">
                        <polygon id="Fill-1" points="174 0 174 43 42.521 43 0 0"></polygon>
                    </g>
                    <path d="M131.729,21.597 L127.478,17.433 L127.478,14.411 C127.478,14.068 127.258,13.897 126.821,13.897 C126.37,13.897 126.141,14.068 126.141,14.411 L126.141,28.998 C126.141,29.342 126.37,29.513 126.821,29.513 C127.258,29.513 127.478,29.342 127.478,28.998 L127.478,21.323 L131.729,25.565 L131.729,29.14 C131.729,30.135 131.231,30.936 130.242,31.538 C129.248,32.14 128.129,32.438 126.879,32.438 C123.276,32.438 121.469,31.18 121.469,28.655 L121.469,15.124 C121.469,12.397 123.276,11.036 126.879,11.036 C130.109,11.036 131.729,12.276 131.729,14.759 L131.729,21.597" id="Fill-4" fill="#FFFFFE"></path>
                    <polyline id="Fill-5" fill="#FFFFFE" points="114.22 32.282 118.83 32.28 118.83 15.875 114.22 11.254 114.22 32.282"></polyline>
                    <polyline id="Fill-6" fill="#FFFFFE" points="154.954 20.85 152.302 11.264 147.049 11.264 147.049 32.285 150.9 36.165 150.9 21.084 154.053 32.285 158.806 32.285 158.806 11.264 154.954 11.264 154.954 20.85"></polyline>
                    <polyline id="Fill-7" fill="#FFFFFE" points="66.527 22.178 64.409 11.27 58.468 11.27 58.468 32.295 62.081 32.295 62.081 20.492 64.84 32.295 68.021 32.295 70.432 20.492 70.432 32.295 74.546 36.46 74.546 11.27 68.358 11.27 66.527 22.178"></polyline>
                    <path d="M83.194,20.41 C83.194,21.151 82.677,21.523 81.649,21.523 L81.649,14.257 C82.677,14.257 83.194,14.629 83.194,15.372 L83.194,20.41 Z M86.291,11.985 C85.355,11.498 83.93,11.254 82.002,11.254 L77.152,11.254 L77.152,32.276 L81.649,36.783 L81.649,24.527 C84.152,24.568 85.782,24.301 86.55,23.727 C87.31,23.159 87.694,22.185 87.694,20.804 L87.694,14.975 C87.694,13.471 87.227,12.474 86.291,11.985 L86.291,11.985 Z" id="Fill-8" fill="#FFFFFE"></path>
                    <path d="M107.105,18.451 C107.105,19.188 106.493,19.557 105.551,19.557 L105.551,13.939 C106.493,13.939 107.105,14.302 107.105,15.027 L107.105,18.451 Z M108.729,20.714 C110.614,20.144 111.56,19.054 111.56,17.439 L111.56,14.945 C111.56,13.668 111.082,12.735 110.128,12.146 C109.178,11.555 108.055,11.262 106.77,11.262 L100.988,11.262 L100.988,32.301 L105.551,32.301 L105.551,22.076 C106.504,22.076 107.121,22.429 107.121,23.135 C107.121,23.175 107.126,30.723 107.126,32.282 L111.57,36.714 L111.572,24.157 C111.572,22.307 110.625,21.159 108.729,20.714 L108.729,20.714 Z" id="Fill-9" fill="#FFFFFE"></path>
                    <polyline id="Fill-10" fill="#FFFFFE" points="89.801 32.287 98.836 32.287 98.836 29.585 94.413 29.585 94.413 22.194 98.35 22.194 98.35 19.65 94.413 19.65 94.413 13.975 98.932 13.975 98.932 11.27 89.801 11.27 89.801 32.287"></polyline>
                    <polyline id="Fill-11" fill="#FFFFFE" points="51.426 32.298 56.008 32.295 56.008 11.259 51.426 6.636 51.426 32.298"></polyline>
                    <path d="M140.153,28.958 C140.153,29.38 139.903,29.59 139.404,29.59 C138.886,29.59 138.626,29.38 138.626,28.958 L138.626,14.618 C138.626,14.196 138.886,13.985 139.404,13.985 C139.903,13.985 140.153,14.196 140.153,14.618 L140.153,28.958 Z M139.426,11.093 C135.887,11.093 134.118,12.458 134.118,15.19 L134.118,28.738 C134.118,31.263 135.879,32.525 139.395,32.525 C140.964,32.525 142.231,32.197 143.2,31.536 C144.173,30.873 144.66,29.933 144.66,28.708 L144.66,15.159 C144.66,12.448 142.916,11.093 139.426,11.093 L139.426,11.093 Z" id="Fill-12" fill="#FFFFFE"></path>
                </g>
            </g>
        </g>
    </g>
</svg>
